assets/images/message.svg

<svg width="576" height="512" viewBox="0 0 576 512" xmlns="http://www.w3.org/2000/svg"><title>Bubble 1</title><g fill="none" fill-rule="evenodd"><path d="M240 0c132.549 0 240 86.957 240 194.224S372.549 388.448 240 388.448c-12.729 0-25.223-.81-37.417-2.355C151.03 437.44 91.497 446.647 32 448v-12.567c32.126-15.677 58-44.231 58-76.866 0-4.553-.356-9.023-1.015-13.396C34.706 309.562 0 255.175 0 194.224 0 86.957 107.452 0 240 0z" fill="#4FB7FC"/><path d="M498 435.343c0 27.973 18.156 52.449 46 65.886V512c-51.562-1.159-98.893-9.051-143.57-53.062a260.865 260.865 0 0 1-32.43 2.021c-47.734 0-91.704-12.879-126.807-34.521 72.336-.254 140.629-23.428 192.417-65.336 26.105-21.127 46.697-45.914 61.207-73.675C510.199 257.994 518 226.636 518 194.224c0-5.224-.225-10.418-.629-15.584C553.656 208.607 576 249.451 576 294.479c0 52.244-30.078 98.86-77.119 129.383a76 76 0 0 0-.881 11.481z" fill="#FD7E81"/></g></svg>

<?xml version="1.0" encoding="UTF-8"?>
<svg width="576px" height="512px" viewBox="0 0 576 512" version="1.1" xmlns="http://www.w3.org/2000/svg" xmlns:xlink="http://www.w3.org/1999/xlink">
    <!-- Generator: Sketch 41.2 (35397) - http://www.bohemiancoding.com/sketch -->
    <title>Bubble 1</title>
    <desc>Created with Sketch.</desc>
    <defs></defs>
    <g id="Page-1" stroke="none" stroke-width="1" fill="none" fill-rule="evenodd">
        <g id="Bubble-1">
            <path d="M240,0 C372.549,0 480,86.957 480,194.224 C480,301.491 372.549,388.448 240,388.448 C227.271,388.448 214.777,387.638 202.583,386.093 C151.03,437.44 91.497,446.647 32,448 L32,435.433 C64.126,419.756 90,391.202 90,358.567 C90,354.014 89.644,349.544 88.985,345.171 C34.706,309.562 0,255.175 0,194.224 C0,86.957 107.452,0 240,0 Z" id="Shape" fill="#4FB7FC"></path>
            <path d="M498,435.343 C498,463.316 516.156,487.792 544,501.229 L544,512 C492.438,510.841 445.107,502.949 400.43,458.938 C389.86,460.262 379.034,460.959 368,460.959 C320.266,460.959 276.296,448.08 241.193,426.438 C313.529,426.184 381.822,403.01 433.61,361.102 C459.715,339.975 480.307,315.188 494.817,287.427 C510.199,257.994 518,226.636 518,194.224 C518,189 517.775,183.806 517.371,178.64 C553.656,208.607 576,249.451 576,294.479 C576,346.723 545.922,393.339 498.881,423.862 C498.309,427.608 498,431.44 498,435.343 Z" id="Shape-path" fill="#FD7E81"></path>
        </g>
    </g>
</svg>
